**kern
*staff3
*tb48
=1-
*clefF4
*k[f#c#]
*M3/8
4.D\
.
.
.
.
.
.
.
.
.
.
.
.
.
.
.
.
.
=2
4.C#;/
.
.
.
.
.
.
.
.
.
.
.
.
.
.
.
.
.
=3
4.r
.
.
.
.
.
.
.
.
.
.
.
.
.
.
.
.
.
=4
4BB/
.
.
.
.
.
.
.
.
.
.
.
8GG/
.
.
.
.
.
=5
4AA/
.
.
.
.
.
.
.
.
.
.
.
8A\
.
.
.
.
.
=6
!!linebreak:original
4.D\
.
.
.
.
.
.
.
.
.
.
.
.
.
.
.
.
.
=7
4.DD/ 4.D/
.
.
.
.
.
.
.
.
.
.
.
.
.
.
.
.
.
=8
4.DD#/ 4.D#/
.
.
.
.
.
.
.
.
.
.
.
.
.
.
.
.
.
=9
4.BBB/ 4.BB/
.
.
.
.
.
.
.
.
.
.
.
.
.
.
.
.
.
=10
!!linebreak:original
4.EE/ 4.E/
.
.
.
.
.
.
.
.
.
.
.
.
.
.
.
.
.
=11
4r
.
.
.
.
.
.
.
.
.
.
.
8r
.
.
.
.
.
=12
8BB/
.
.
.
.
.
4E\
.
.
.
.
.
.
.
.
.
.
.
=13
4r
.
.
.
.
.
.
.
.
.
.
.
8r
.
.
.
.
.
=14
!!linebreak:original
8AA/
.
.
.
.
.
4D\
.
.
.
.
.
.
.
.
.
.
.
=15
4r
.
.
.
.
.
.
.
.
.
.
.
8r
.
.
.
.
.
=16
4B\
.
.
.
.
.
.
.
.
.
.
.
8A\
.
.
.
.
.
=17
!!linebreak:original
4r
.
.
.
.
.
.
.
.
.
.
.
8r
.
.
.
.
.
=18
4G\
.
.
.
.
.
.
.
.
.
.
.
8F#;\
.
.
.
.
.
=19
4AA/
.
.
.
.
.
.
.
.
.
.
.
8AAA/
.
.
.
.
.
=20
4DD/
.
.
.
.
.
.
.
.
.
.
.
8r
.
.
.
.
.
=21
!!linebreak:original
4D\
.
.
.
.
.
.
.
.
.
.
.
8r
.
.
.
.
.
=22
4D\
.
.
.
.
.
.
.
.
.
.
.
8r
.
.
.
.
.
=23
8AA/L
.
.
.
.
.
8AAA/J
.
.
.
.
.
8r
.
.
.
.
.
=24
4DD/
.
.
.
.
.
.
.
.
.
.
.
8r
.
.
.
.
.
=25
!!linebreak:original
4.D\
.
.
.
.
.
.
.
.
.
.
.
.
.
.
.
.
.
=26
4.C#;/
.
.
.
.
.
.
.
.
.
.
.
.
.
.
.
.
.
=27
4.r
.
.
.
.
.
.
.
.
.
.
.
.
.
.
.
.
.
=28
4BB/
.
.
.
.
.
.
.
.
.
.
.
8GG/
.
.
.
.
.
=29
4AA/
.
.
.
.
.
.
.
.
.
.
.
8A\
.
.
.
.
.
=30
!!linebreak:original
4.D\
.
.
.
.
.
.
.
.
.
.
.
.
.
.
.
.
.
=31
4.DD/ 4.D/
.
.
.
.
.
.
.
.
.
.
.
.
.
.
.
.
.
=32
4.DD#/ 4.D#/
.
.
.
.
.
.
.
.
.
.
.
.
.
.
.
.
.
=33
4.BBB/ 4.BB/
.
.
.
.
.
.
.
.
.
.
.
.
.
.
.
.
.
=34
!!linebreak:original
4.EE/ 4.E/
.
.
.
.
.
.
.
.
.
.
.
.
.
.
.
.
.
=35
4r
.
.
.
.
.
.
.
.
.
.
.
8r
.
.
.
.
.
=36
8BB/
.
.
.
.
.
4E\
.
.
.
.
.
.
.
.
.
.
.
=37
4r
.
.
.
.
.
.
.
.
.
.
.
8r
.
.
.
.
.
=38
!!linebreak:original
8AA/
.
.
.
.
.
4D\
.
.
.
.
.
.
.
.
.
.
.
=39
4.BB\ 4.B\
.
.
.
.
.
.
.
.
.
.
.
.
.
.
.
.
.
=40
4.AA\ 4.A\
.
.
.
.
.
.
.
.
.
.
.
.
.
.
.
.
.
=41
!!linebreak:original
4.GG/ 4.G/
.
.
.
.
.
.
.
.
.
.
.
.
.
.
.
.
.
=42
4.FF#/ 4.F#/
.
.
.
.
.
.
.
.
.
.
.
.
.
.
.
.
.
=43
4AA/
.
.
.
.
.
.
.
.
.
.
.
8AAA/
.
.
.
.
.
=44
4DD/
.
.
.
.
.
.
.
.
.
.
.
8r
.
.
.
.
.
==
*-
